public/images/icons/user-circle-remove.svg

<svg width="30" height="30" viewBox="0 0 30 30" fill="none" xmlns="http://www.w3.org/2000/svg">
<path d="M25.8229 4.52C25 3.58286 23.7771 3 22.4286 3C21.1486 3 19.9829 3.52571 19.1486 4.38286C18.6686 4.87429 18.3029 5.46857 18.0857 6.13143C17.9371 6.58857 17.8571 7.06857 17.8571 7.57143C17.8571 8.42857 18.0971 9.24 18.52 9.92571C18.7486 10.3143 19.0457 10.6686 19.3886 10.9657C20.1886 11.6971 21.2514 12.1429 22.4286 12.1429C22.9314 12.1429 23.4114 12.0629 23.8571 11.9029C24.9086 11.5714 25.7886 10.8514 26.3371 9.92571C26.5771 9.53714 26.76 9.09143 26.8629 8.63429C26.9543 8.29143 27 7.93714 27 7.57143C27 6.40571 26.5543 5.33143 25.8229 4.52ZM24.1314 8.40571H23.2857C22.8 8.4 22.8971 8.40571 22.4286 8.40571C21.96 8.40571 22.2 8.4 21.5714 8.40571H20.7257C20.2571 8.40571 19.8686 8.01714 19.8686 7.54857C19.8686 7.08 20.2571 6.69143 20.7257 6.69143H21.5714C22.0406 6.69143 21.96 6.69143 22.4286 6.69143C22.8971 6.69143 22.8 6.69143 23.2857 6.69143H24.1314C24.6 6.69143 24.9886 7.08 24.9886 7.54857C24.9886 8.01714 24.6114 8.40571 24.1314 8.40571Z" fill="#D73847"/>
<path d="M25.8571 15.5714C25.8571 14.0743 25.5714 12.6343 25.0343 11.32C24.68 11.5714 24.28 11.7657 23.8571 11.9029C23.7314 11.9486 23.6057 11.9829 23.4686 12.0171C23.9029 13.1143 24.1429 14.3143 24.1429 15.5714C24.1429 18.2229 23.0686 20.6343 21.3314 22.3943C21 21.9714 20.5771 21.5829 20.0743 21.2514C16.9771 19.1714 11.9029 19.1714 8.78286 21.2514C8.28 21.5829 7.86857 21.9714 7.52571 22.3943C5.78857 20.6343 4.71429 18.2229 4.71429 15.5714C4.71429 10.2114 9.06857 5.85714 14.4286 5.85714C15.6743 5.85714 16.8743 6.09714 17.9714 6.53143C18.0057 6.39429 18.04 6.26857 18.0857 6.13143C18.2229 5.70857 18.4171 5.32 18.68 4.96571C17.3657 4.42857 15.9257 4.14286 14.4286 4.14286C8.13143 4.14286 3 9.27429 3 15.5714C3 18.8857 4.42857 21.8686 6.69143 23.96C6.69143 23.9714 6.69143 23.9714 6.68 23.9829C6.79429 24.0971 6.93143 24.1886 7.04571 24.2914C7.11429 24.3486 7.17143 24.4057 7.24 24.4514C7.44571 24.6229 7.67429 24.7829 7.89143 24.9429C7.97143 25 8.04 25.0457 8.12 25.1029C8.33714 25.2514 8.56571 25.3886 8.80571 25.5143C8.88571 25.56 8.97714 25.6171 9.05714 25.6629C9.28571 25.7886 9.52571 25.9029 9.77714 26.0057C9.86857 26.0514 9.96 26.0971 10.0514 26.1314C10.3029 26.2343 10.5543 26.3257 10.8057 26.4057C10.8971 26.44 10.9886 26.4743 11.08 26.4971C11.3543 26.5771 11.6286 26.6457 11.9029 26.7143C11.9829 26.7371 12.0629 26.76 12.1543 26.7714C12.4743 26.84 12.7943 26.8857 13.1257 26.92C13.1714 26.92 13.2171 26.9314 13.2629 26.9429C13.6514 26.9771 14.04 27 14.4286 27C14.8171 27 15.2057 26.9771 15.5829 26.9429C15.6286 26.9429 15.6743 26.9314 15.72 26.92C16.0514 26.8857 16.3714 26.84 16.6914 26.7714C16.7714 26.76 16.8514 26.7257 16.9429 26.7143C17.2171 26.6457 17.5029 26.5886 17.7657 26.4971C17.8571 26.4629 17.9486 26.4286 18.04 26.4057C18.2914 26.3143 18.5543 26.2343 18.7943 26.1314C18.8857 26.0971 18.9771 26.0514 19.0686 26.0057C19.3086 25.9029 19.5486 25.7886 19.7886 25.6629C19.88 25.6171 19.96 25.56 20.04 25.5143C20.2686 25.3771 20.4971 25.2514 20.7257 25.1029C20.8057 25.0571 20.8743 25 20.9543 24.9429C21.1829 24.7829 21.4 24.6229 21.6057 24.4514C21.6743 24.3943 21.7314 24.3371 21.8 24.2914C21.9257 24.1886 22.0514 24.0857 22.1657 23.9829C22.1657 23.9714 22.1657 23.9714 22.1543 23.96C24.4286 21.8686 25.8571 18.8857 25.8571 15.5714Z" fill="#D73847"/>
<path d="M14.4286 9.77734C12.0629 9.77734 10.1429 11.6973 10.1429 14.0631C10.1429 16.3831 11.96 18.2688 14.3714 18.3373C14.4057 18.3373 14.4514 18.3373 14.4743 18.3373C14.4971 18.3373 14.5314 18.3373 14.5543 18.3373C14.5657 18.3373 14.5771 18.3373 14.5771 18.3373C16.8857 18.2573 18.7029 16.3831 18.7143 14.0631C18.7143 11.6973 16.7943 9.77734 14.4286 9.77734Z" fill="#D73847"/>
</svg>

<svg xmlns="http://www.w3.org/2000/svg" width="30" height="30" fill="none" viewBox="0 0 30 30"><path fill="#D73847" d="M25.823 4.52A4.5 4.5 0 0 0 22.429 3c-1.28 0-2.446.526-3.28 1.383a4.5 4.5 0 0 0-1.063 1.748 4.6 4.6 0 0 0-.229 1.44c0 .858.24 1.669.663 2.355.229.388.526.743.869 1.04a4.48 4.48 0 0 0 3.04 1.177c.502 0 .982-.08 1.428-.24a4.46 4.46 0 0 0 2.48-1.977c.24-.389.423-.835.526-1.292Q27 8.12 27 7.571c0-1.165-.446-2.24-1.177-3.051M24.13 8.406h-.845c-.486-.006-.389 0-.857 0-.469 0-.229-.006-.858 0h-.845a.863.863 0 0 1-.857-.857c0-.469.388-.858.857-.858h3.405c.469 0 .858.389.858.858a.856.856 0 0 1-.858.857"/><path fill="#D73847" d="M25.857 15.571c0-1.497-.286-2.937-.823-4.251a4.4 4.4 0 0 1-1.177.583c-.126.046-.251.08-.388.114a9.69 9.69 0 0 1-2.137 10.377 5.3 5.3 0 0 0-1.258-1.143c-3.097-2.08-8.171-2.08-11.291 0a5.5 5.5 0 0 0-1.257 1.143 9.7 9.7 0 0 1-2.812-6.823c0-5.36 4.355-9.714 9.715-9.714 1.245 0 2.445.24 3.542.674a6 6 0 0 1 .115-.4 4 4 0 0 1 .594-1.165 11.2 11.2 0 0 0-4.251-.823C8.13 4.143 3 9.274 3 15.57c0 3.315 1.429 6.298 3.691 8.389 0 .011 0 .011-.011.023.114.114.251.206.366.308.068.058.125.115.194.16.206.172.434.332.651.492l.229.16q.326.223.686.411c.08.046.171.103.251.149q.343.189.72.343c.092.045.183.091.274.125q.377.155.755.275c.091.034.183.068.274.091.274.08.549.149.823.217.08.023.16.046.251.057.32.069.64.115.972.149.045 0 .091.011.137.023.388.034.777.057 1.166.057s.777-.023 1.154-.057c.046 0 .091-.012.137-.023.331-.034.651-.08.971-.149.08-.011.16-.045.252-.057.274-.068.56-.125.823-.217.091-.034.183-.068.274-.091.251-.092.514-.172.754-.275.092-.034.183-.08.275-.125q.36-.154.72-.343c.091-.046.171-.103.251-.149.229-.137.457-.263.686-.411.08-.046.148-.103.228-.16.229-.16.446-.32.652-.492.068-.057.125-.114.194-.16a10 10 0 0 0 .366-.308c0-.012 0-.012-.012-.023 2.275-2.091 3.703-5.074 3.703-8.389"/><path fill="#D73847" d="M14.429 9.777a4.287 4.287 0 0 0-4.286 4.286c0 2.32 1.817 4.206 4.228 4.274h.206a4.28 4.28 0 0 0 4.137-4.274 4.287 4.287 0 0 0-4.285-4.286"/></svg>
